ui/public/images/landing-cards/team.svg

<svg width="17" height="16" viewBox="0 0 17 16" fill="none" xmlns="http://www.w3.org/2000/svg">
<g clip-path="url(#clip0_11778_289455)">
<path d="M8.50016 7.3335C9.38422 7.3335 10.2321 7.68469 10.8572 8.30981C11.4823 8.93493 11.8335 9.78277 11.8335 10.6668V14.6668H5.16683V10.6668C5.16683 9.78277 5.51802 8.93493 6.14314 8.30981C6.76826 7.68469 7.61611 7.3335 8.50016 7.3335ZM4.0255 9.3375C3.9194 9.69535 3.85673 10.0647 3.83883 10.4375L3.8335 10.6668V14.6668H1.8335V11.6668C1.83336 11.0919 2.04551 10.5371 2.42925 10.109C2.81299 9.68082 3.3413 9.40942 3.91283 9.34683L4.02616 9.3375H4.0255ZM12.9748 9.3375C13.5681 9.37366 14.1252 9.6348 14.5326 10.0677C14.9399 10.5005 15.1667 11.0725 15.1668 11.6668V14.6668H13.1668V10.6668C13.1668 10.2048 13.1002 9.75883 12.9748 9.3375ZM4.16683 5.3335C4.60886 5.3335 5.03278 5.50909 5.34534 5.82165C5.6579 6.13421 5.8335 6.55814 5.8335 7.00016C5.8335 7.44219 5.6579 7.86611 5.34534 8.17867C5.03278 8.49123 4.60886 8.66683 4.16683 8.66683C3.7248 8.66683 3.30088 8.49123 2.98832 8.17867C2.67576 7.86611 2.50016 7.44219 2.50016 7.00016C2.50016 6.55814 2.67576 6.13421 2.98832 5.82165C3.30088 5.50909 3.7248 5.3335 4.16683 5.3335ZM12.8335 5.3335C13.2755 5.3335 13.6994 5.50909 14.012 5.82165C14.3246 6.13421 14.5002 6.55814 14.5002 7.00016C14.5002 7.44219 14.3246 7.86611 14.012 8.17867C13.6994 8.49123 13.2755 8.66683 12.8335 8.66683C12.3915 8.66683 11.9675 8.49123 11.655 8.17867C11.3424 7.86611 11.1668 7.44219 11.1668 7.00016C11.1668 6.55814 11.3424 6.13421 11.655 5.82165C11.9675 5.50909 12.3915 5.3335 12.8335 5.3335ZM8.50016 1.3335C9.20741 1.3335 9.88568 1.61445 10.3858 2.11454C10.8859 2.61464 11.1668 3.29292 11.1668 4.00016C11.1668 4.70741 10.8859 5.38568 10.3858 5.88578C9.88568 6.38588 9.20741 6.66683 8.50016 6.66683C7.79292 6.66683 7.11464 6.38588 6.61454 5.88578C6.11445 5.38568 5.8335 4.70741 5.8335 4.00016C5.8335 3.29292 6.11445 2.61464 6.61454 2.11454C7.11464 1.61445 7.79292 1.3335 8.50016 1.3335Z" fill="#161616"/>
</g>
<defs>
<clipPath id="clip0_11778_289455">
<rect width="16" height="16" fill="white" transform="translate(0.5)"/>
</clipPath>
</defs>
</svg>

<svg width="17" height="16" fill="none" xmlns="http://www.w3.org/2000/svg"><g clip-path="url(#a)"><path d="M8.5 7.333a3.333 3.333 0 0 1 3.334 3.334v4H5.167v-4A3.333 3.333 0 0 1 8.5 7.334zM4.026 9.338a4.655 4.655 0 0 0-.187 1.1l-.006.229v4h-2v-3a2.333 2.333 0 0 1 2.08-2.32l.113-.01zm8.949 0a2.334 2.334 0 0 1 2.192 2.329v3h-2v-4c0-.462-.067-.908-.192-1.33zM4.167 5.334a1.667 1.667 0 1 1 0 3.333 1.667 1.667 0 0 1 0-3.333zm8.667 0a1.667 1.667 0 1 1 0 3.333 1.667 1.667 0 0 1 0-3.333zm-4.334-4a2.667 2.667 0 1 1 0 5.333 2.667 2.667 0 0 1 0-5.333z" fill="#161616"/></g><defs><clipPath id="a"><path fill="#fff" transform="translate(.5)" d="M0 0h16v16H0z"/></clipPath></defs></svg>
